X:1
T:McKee, CM
T:McKee, CM
T:African American Spiritual
T:Arranged by Harry T. Burleigh (1866-1949) Public Domain, Courtesy of the Cyber Hymnal™
C:African American Spiritual
Z:Arranged by Harry T. Burleigh (1866-1949)
Z:Public Domain, Courtesy of the Cyber Hymnal™
%%score ( 1 2 ) ( 3 4 )
L:1/8
Q:1/4=115
M:4/4
K:Bb
V:1 treble 
V:2 treble 
V:3 bass 
V:4 bass 
V:1
 (B,D) | [DF]2 [CF]2 [DF]2 (FG) | _A2 A2 G3 F | [EG]2 [FB]2 (BG) (FG) | B6 (Bc) | d2 B2 B2 G2 | %6
 F2 E2 [B,D]2 (B,C) | (D F2) G (FD) [A,C]2 | B,6 |] %9
V:2
 B,2 | x6 B,2 | C4 B,4 | x4 E4 | F2 E2 D2 D2 | D4 E4 | C4 B,2 x2 | A,4 B,2 x2 | B,6 |] %9
V:3
 (D,F,) | F,2 E,2 F,2 D,2 | E,4 E,3 F, | B,6 ([F,A,][E,G,]) | F,6 [A,,F,]2 | [G,,B,]4 G,4 | %6
 F,6 [E,G,]2 | [D,F,]4 [C,G,]2 [F,,E,]2 | [B,,D,]6 |] %9
V:4
 B,,2 | B,,8 | _A,,2 C,2 E,3 F, | E,2 D,2 C,2 x2 | D,2 C,2 B,,2 x2 | x4 C,2 B,,2 | %6
 A,,2 (G,,A,,) B,,2 x2 | x8 | x6 |] %9

